X:1
T:Waltz of the Flowers
T:Waltz of the Flowers
T:Tchaikovsky, arr. By: Wilson Oliver Terry then later arr. By: Zachary Chromey 
T:From The Nutcracker Suite
C:Tchaikovsky, arr. Wilson Oliver Terry
%%score 1 2 3
L:1/8
Q:1/4=150
M:3/4
K:D
V:1 treble nm="Violin" snm="Vln."
V:2 bass nm="Violoncello" snm="Vc."
V:3 bass nm="Violoncello" snm="Vc."
V:1
 z6 | z6 | z6 | z6 |!f!"^5" A,2 D2 F2 | G4- GF | F6- | F2 z4 | A,2 D2 F2 | G2 F3 E | A4 D2 | %11
!p!"^12" z2 (A,B,) (CD) | (^DF) (DF) E z | z2!<(! (CD) (^DE) | (FA) (FA) G z | z2 (EF) (GA) | %16
 (^Ac) (BA) (Bc)!<)! |!f! (ed) (cd) (BG) | F4"^Rit."[Q:1/4=100] !fermata!E2- | %19
!>(! E_E DC[Q:1/4=60] B,!fermata!_B,!>)! |!f![Q:1/4=150]"^A Tempo""^21" A,2 D2 F2 | G4- GF | F6- | %23
 F2 z4 | A,2 D2 F2 | G2 F3 E | A4 D2 |!p!"^28" z2 DE FG | AB ^GB A z | z2!<(! ^^F^G AB | %30
 cd ^Bd c z | z2!<)!!mf! ^Bc ^d^e |!<(! f^g a^e gf!<)! |!f! a^e ^gf af | af af a^e | %35
 f z (Bc) (de) |:"^37" (f4 c2) | (e4 B2) | (d4 G2) |!ff! (5:4:5(c'/d'/c'/d'/c'/ .b) z .c' z | %40
!f! (g4 d2) | (f4 c2) | (e4 A2) |!ff! (5:4:5(d'/e'/d'/e'/d'/ .c') z .d' z |!f! (f4 c2) | (e4 B2) | %46
 (d4 G2) |!ff! (5:4:5(c'/d'/c'/d'/c'/ .b) z .c' z |1!f!!<(! (g4 d2) | (g4 d2) | (g4 e2)!<)! | %51
!sfz! a z Bc de :|2!f!!<(! (b4 a2) || (b4 a2)!<)! |!sfz! c' z!<(! ef g^g!<)! |!f! a z z4 | %56
!mp!"^57" A,2 D2 D2 | E4- E z | z!f! A!<(! Bc df!<)! |!>(! ba fd BA!>)! |!mp! A,2 D2 D2 | E2 C3 C | %62
 z!f! c!<(! de fa!<)! |"^64"!>(! d'a fd AF!>)! | z4 z!mf! f | e=c!<(! G z z2 | z4 z a | ge z4 | %68
 z2 d'2 b2!<)! |!>(! g2 (ed) (gb)!>)! | %70
!p!!<(! (5:4:5(d/e/d/e/d/ (5:4:5e/d/e/d/e/ (5:4:5d/e/d/e/d/)!<)! | c z z4 |!mp!"^73" A,2 D2 D2 | %73
 E4- E z | z!f! A!<(! Bc df!<)! |!>(! ba fd BA!>)! |!mp! A,2 D2 D2 | E2 C3 C | %78
 z!f! c!<(! de fa!<)! |!>(! d'a fd A z!>)! | z4 z a | ^g^e c z z2 | z4 z f | ^eB!mp!!<(! ^Bc ^df | %84
 f^g a^e gf | a^e ^gf af | af af a^e!<)! |!f! f z (Bc) (de) |:"^89"!f! (f4 c2) | (e4 B2) | %90
 (d4 G2) |!ff! (5:4:5(c'/d'/c'/d'/c'/ .b) z .c' z |!f! (g4 d2) | (f4 c2) | (e4 A2) | %95
!ff! (5:4:5(d'/e'/d'/e'/d'/ .c') z .d' z |!f! (f4 c2) | (e4 B2) | (d4 G2) | %99
!ff! (5:4:5(c'/d'/c'/d'/c'/ .b) z .c' z |1!f!!<(! (g4 d2) | (g4 d2) | (g4 e2)!<)! | %103
!sfz! a z Bc d z :|2!f!!<(! (b4 a2) || (b4 a2)!<)! |!sfz! c' z a^a bc' |!ff! d' z!p! d'2 ^d'2 |: %108
[K:G]"^109" e'4 a z | z2 b2 c'2 | d'4 g z | z2 a2 b2 | c'4 e z | b4 g z | b4 a2 | z2 d'2 ^d'2 | %116
 e'4 a z | z2 b2 c'2 | d'4!<(! g z | z2 b2 ^e2 | f2!<)!!f! b2 d'2 | d'4 ^c'2 |1 bd ef ^g^a | %123
 b z!p! d'2 ^d'2 :|2[K:D]"^125" z!p! B Bd db || z B Bd db | z B Bg gb | z B Bg gb | z c ce ec' | %129
 z c c^a ac' | z B Bg gb | z B Bg gb | z B Bd db | z F Fd db | z G GB Bg | z G GB Bg | z F Fe ef | %137
 z F Fe ef | z F Fd df | f z z4 | z B Bd db | z B Bd db | z B Bg gb | z B Bg gb | z c ce ec' | %145
 z c c^a ac' | z B Bg gb | z B Bg gb | z F Ff fb | z B Bf fb | z B Bg gb | z B Bg gb | z B Bd db | %153
 z ^A Ac c^a | z B Bf fb | [fb] z z4 |] %156
V:2
!f! z2 .[F,A,]2 .[F,A,]2 | z2 .[F,A,]2 .[F,A,]2 | z2 .[F,A,]2 .[F,A,]2 | z2 .[F,A,]2 .[F,A,]2 | %4
!mp! z2 .[F,A,]2 .[F,A,]2 | z2 .[F,A,]2 .[F,A,]2 | z2 .[F,A,]2 .[F,A,]2 | z2 .[F,A,]2 .[F,A,]2 | %8
 z2 .[F,A,]2 .[F,A,]2 | z2 .D,2 .D,2 | z2 .[F,A,]2 .[F,A,]2 |!pp! z2 .[F,A,]2 .[F,A,]2 | %12
 z2 .[E,A,]2 .[E,A,]2 | z2!<(! .[E,A,]2 .[E,A,]2 | z2 .[G,B,]2 .[G,B,]2 | z2 .[G,B,]2 .[G,B,]2 | %16
 z2 .[B,E]2 .[B,E]2!<)! |!mf! z2 .[^G,D]2 .[G,D]2 |!mp! .[G,C]2 z2"^Rit." z2 | z6 | %20
"^A Tempo" z2 .[F,A,]2 .[F,A,]2 | z2 .G,2 .G,2 | z2 .F,2 .F,2 | z2 .D,2 .D,2 | z2 .A,2 .A,2 | %25
 z2 .G,2 .G,2 | z2 .D,2 .D,2 | z2!p! .[F,B,]2 .[F,B,]2 | z2!<(! .C2 .C2 | z2 .^G,2 .G,2 | %30
 z2 .A,2 .A,2 | z2 .[^E,C]2 .[E,C]2!<)! | z2!mf! A,2 z2 | C2 z2 [F,B,]2 | z2 .C2 .[^E,C]2 | %35
 .A, z (^G,A,) (B,C) |: z2 .[F,A,]2 .[F,A,]2 | z2 .[F,A,]2 .[F,A,]2 | z2 .G,2 .B,2 | z2 .G,2 .G,2 | %40
 z2 .D,2 .D,2 | z2 .[G,A,]2 .[G,A,]2 | z2 .[F,A,]2 .[F,A,]2 | z2 .[F,A,]2 .[F,A,]2 | %44
 z2 .[F,A,]2 .[F,A,]2 | z2 .[F,A,]2 .[F,A,]2 | z2 .[G,A,]2 .[G,A,]2 | z2 .[G,A,]2 .[G,A,]2 |1 %48
!<(! z2 .^D,2 .D,2 | z2 .E,2 .E,2 | z2 .G,2 .G,2!<)! |!sfz! .A, z ^G,A, B,C :|2 %52
 z2!f!!<(! .D2 .D2 || z2 .^D2 .D2!<)! |!sfz! .[CE] z!<(! E,F, G,^G,!<)! |!mp! A, z z4 | %56
 z2!mp! .[F,A,]2 .[F,A,]2 | z2 .G,2 .G,2 | z2 .[F,A,]2 .[F,A,]2 | z2 .D,2 .D,2 | z2 .F,2 .F,2 | %61
 z2 .[F,A,]2 .[F,A,]2 | z2 .E,2 .E,2 | z2 .[F,A,]2 [F,A,]2 | z2!p!!<(! .[E,A,]2 .[E,A,]2 | %65
 z2 .[E,A,]2 .[E,A,]2 | z2 .[G,B,]2 .[G,B,]2 | z2 .[G,B,]2 .[G,B,]2 | z2 .G2 .G2!<)! | %69
 z2!mf! .[B,E]2 .[G,B,]2 | z2 .[G,D]2 .[G,D]2 | .[G,C] z z4 | z2!mp! .[F,A,]2 .[F,A,]2 | %73
 z2 .G,2 .G,2 | z2 .[F,A,]2 .[F,A,]2 | z2 .D,2 .D,2 | z2 .F,2 .F,2 | z2 .A,2 .A,2 | z2 .G,2 .G,2 | %79
 z2 .[F,^B,]2 .[F,B,]2 | z2!<(! .C2 .C2 | z2 .[^G,C]2 .[G,C]2 | z2 .[F,C]2 [F,C]2 | %83
 z2 .[^E,C]2 .[E,C]2 | z2 .C2 z2 | C2 z2 ^B,2 | z2 .A,2 .[^E,C]2!<)! |!f! .CA, (B,C) (DE) |: %88
 z2 .[F,A,]2 .[F,A,]2 | z2 .[F,A,]2 .[F,A,]2 | z2 .[G,B,]2 .[G,B,]2 | z2 .G,2 .G,2 | z2 .D,2 .D,2 | %93
 z2 .[G,A,]2 .[G,A,]2 | z2 .[F,A,]2 .[F,A,]2 | z2 .[F,A,]2 .[F,A,]2 | z2 .[F,A,]2 .[F,A,]2 | %97
 z2 .[F,A,]2 .[F,A,]2 | z2 .[G,A,]2 .[G,A,]2 | z2 .[G,A,]2 .[G,A,]2 |1!<(! z2 .^D,2 .D,2 | %101
 z2 .E,2 .E,2 | z2 .G,2 .G,2!<)! |!sfz! .A, z ^G,A, B,C :|2 z2!f!!<(! B,2 B,2 || z2 A,2 ^B,2!<)! | %106
!sfz! C z A,^A, B,C |!ff! D z z4 |:[K:G] z2!p! .C2 .C2 | z2 .C2 .C2 | z2 .[G,B,]2 .[G,B,]2 | %111
 z2 .[G,B,]2 .[G,B,]2 | z2 .C2 .C2 | z2 .E2 .E2 | z2 .F2 .F2 | .D z z2 .^D2 | z2 .C2 .C2 | %117
 z2 .C2 .C2 | z2!<(! .D2 .D2 | z2 .[G,B,]2 .[G,^C]2 | [F,B,]2!<)!!f! D2 [F,B,]2 | %121
 F,G, ^G,A, B,^A, |1 .[F,B,]2 .[F,B,]2 .D2 | F z z4 :|2[K:D]!ff! F6 || G6 | F6 | E2 ^D2 E2 | %128
 G4 F2 | F4 E2 | E4 D2 | D2 C2 D2 | F4 B,2 | B,2 ^A,2 B,2 | D4 B,2 | G,2 B,2 D2 | D4 ^A,2 | %137
 F,2 ^A,2 D2 | C4 B,2 | z6 | z6 | z6 | z6 | z6 | z6 | z6 | z6 | z6 | z6 | z6 | z6 | z6 | z6 | z6 | %154
 z6 | z6 |] %156
V:3
 z6 | z6 | z6 | z6 |!mf! A,,2 D,2 D,2 | E,4- E,F, | F,6- | F,2 z4 | A,,2 D,2 D,2 | E,2 F,3 E, | %10
 D,4 D,2 | z6 | z6 | z6 | z6 | z6 | z6 | z6 | z6 | z6 | A,,2 D,2 D,2 | E,4- E,F, | F,6- | F,2 z4 | %24
 A,,2 D,2 D,2 | E,2 F,3 E, | D,4 D,2 | z6 | z6 | z6 | z6 | z6 | z6 | z6 | z6 | %35
 z A, (^G,A,) (B,C) |:!f! (D4 A,2) | (C4 G,2) | (D,4 E,2) |!ff! (5:4:5(C/D/C/D/C/ .B,) z .C z | %40
!f! G,4 G,2 | (F,4 E,2) | (E,4 F,2) |!ff! (5:4:5(D/E/D/E/D/ .C) z .D z |!f! (F,4 C,2) | (E,4 D,2) | %46
 (D,4 E,2) |!ff! (5:4:5(C/D/C/D/C/ .B,) z .C z |1!f!!<(! G,4 G,2 | G,4 G,2 | G,4 G,2!<)! | %51
!sfz! A,A, ^G,A, B,C :|2!f!!<(! (D4 B,2) || (D4 B,2)!<)! |!sfz! C z!<(! E,F, G,^G,!<)! | %55
!f! A,G, E,C, B,,_B,, |!mp! A,,2 D,2 F,2 | G,4- G,F, | F,6- | F,2 z4 | A,,2 D,2 F,2 | G,2 F,3 E, | %62
 A,4 D,2 |!>(! z2 (A,,B,,) (C,D,)!>)! | (^D,F,) (D,F,) E, z | z2!<(! (=C,D,) (^D,E,) | %66
 (F,A,) (F,A,) G, z | z2 (E,F,) (G,A,) | (^A,C) (B,A,) (B,C)!<)! |!>(! (ED) (CD) (B,G,)!>)! | %70
!<(! F,4 E,2-!<)! | E,_E, D,C, B,,_B,, |!mp! A,,2 D,2 F,2 | G,4- G,F, | F,6- | F,2 z4 | %76
 A,,2 D,2 F,2 | G,2 F,3 E, | A,4 D,2 | z2 D,E, F,^G, | A,B, ^G,B, A, z | z2!<(! G,^G, A,B, | %82
 CD ^B,D C!<)! z | z6 | z6 | z6 | z6 | z!f! A, (^G,A,) (B,C) |:!f! (D4 A,2) | (C4 G,2) | %90
 (D,4 E,2) |!ff! (5:4:5(C/D/C/D/C/ .B,) z .C z |!f! G,4 G,2 | (F,4 E,2) | (E,4 F,2) | %95
!ff! (5:4:5(D/E/D/E/D/ .C) z .D z |!f! (F,4 C,2) | (E,4 D,2) | (D,4 E,2) | %99
!ff! (5:4:5(C/D/C/D/C/ .B,) z .C z |1!f!!<(! G,4 G,2 | G,4 G,2 | G,4 G,2!<)! | %103
!sfz! A,A, ^G,A, B,C :|2!f!!<(! (B,4 B,2) || (B,4 ^B,2)!<)! |!sfz! C z A,^A, B,C | %107
!ff! D z!p! D2 ^D2 |:[K:G] z D CB, A,G, | A,G, F,E, D,C, | z C B,A, G,F, | G,F, E,F, E,D, | %112
 A,B, ^CD EF | ^CD EF z2 | F,G, A,B, C^C | D z D2 ^D2 | z D CB, A,G, | A,G, F,E, D,C, | %118
 z!<(! C B,A, G,F, | G,F, E,D, E,2 | F,E!<)!!f! D^C B,G, | [E,F,]2 [E,F,]2 [E,F,]2 |1 %122
 [D,F,]D, E,F, ^G,^A, |!p! B,^C B,A, G,F, :|2[K:D] z2 .[F,B,]2 .[F,B,]2 || z2 .[F,B,]2 .[F,B,]2 | %126
 z2 .[G,B,]2 .[G,B,]2 | z2 .[G,B,]2 .[G,B,]2 | z2 .[C,F,]2 .[C,F,]2 | z2 .[F,^A,]2 .[F,A,]2 | %130
 z2 .[B,,G,]2 .[B,,G,]2 | z2 .[B,,G,]2 .[B,,G,]2 | z4 z2 | z6 | z6 | z6 | z6 | z6 | %138
 z2 .[D,F,]2 .[D,F,]2 | .[D,F,] z z4 | z2 .[F,B,]2 .[F,B,]2 | z2 .[F,B,]2 .[F,B,]2 | %142
 z2 .[G,B,]2 .[G,B,]2 | z2 .[G,B,]2 .[G,B,]2 | z2 .[C,F,]2 .[C,F,]2 | z2 .[F,^A,]2 .[F,A,]2 | %146
 z2 .[B,,G,]2 .[B,,G,]2 | z2 .[B,,G,]2 .[B,,G,]2 | z2 .F,2 .F,2 | z2 .F,2 .F,2 | z2 .G,2 .G,2 | %151
 z2 .G,2 .G,2 | z2 .D2 .D2 | z2 .C2 .^A,2 | z6 | z6 |] %156

